X: 167
T: When I was a Maiden
T: Nuair Bha Mi Fein 'Nam Mhaidun
R:Reel
S:MacDonald - Skye Collection
N:pg.12
M:C
L:1/8
K:A Mix
f|eAcA eA c2|(fB)Bc fBBa|eAcA eA ca|cAAB cAA:|
|:a|fefa fedc|fBBc fBBa|1 fefa feca|cAAB cAA:|2 fefa eaca|cAAB cAA||


